src/assets/fleet-icons/driver.svg

<svg width="20" height="20" viewBox="0 0 20 20" fill="none" xmlns="http://www.w3.org/2000/svg">
    <g clip-path="url(#clip0_13958_40248)">
        <path
            d="M15.5204 12.3847C15.5351 12.2693 15.5435 12.1519 15.5435 12.0326V4.27173C15.5435 2.74339 14.3001 1.5 12.7717 1.5H8.33696C6.80862 1.5 5.56522 2.74339 5.56522 4.27173V5.93478H3.90218C3.59605 5.93478 3.34782 6.18297 3.34782 6.48913C3.34782 6.7953 3.59601 7.04349 3.90218 7.04349H5.56522V12.0326C5.56522 12.152 5.57366 12.2693 5.58837 12.3847C4.88157 12.9022 4.45654 13.7253 4.45654 14.6196V17.9457C4.45654 18.2518 4.70473 18.5 5.0109 18.5H16.0979C16.404 18.5 16.6522 18.2518 16.6522 17.9457V14.6196C16.6522 13.7253 16.2271 12.9022 15.5204 12.3847ZM8.33696 2.60869H12.7717C13.6887 2.60869 14.4348 3.35473 14.4348 4.27173V5.93478H11.1087V5.38045C11.1087 4.46345 10.3626 3.7174 9.44564 3.7174H6.76924C6.99811 3.07217 7.61426 2.60869 8.33696 2.60869ZM6.67391 4.82609H9.44564C9.75131 4.82609 10 5.07478 10 5.38045V5.93481H6.67391V4.82609ZM6.67391 14.25V17.3913H5.56522V14.6196C5.56522 14.2003 5.72141 13.8074 5.99179 13.5073C6.17261 13.7938 6.40397 14.0454 6.67401 14.2485L6.67391 14.25ZM13.3261 17.3913H7.7826V14.7486C7.96176 14.7851 8.14713 14.8044 8.33696 14.8044H12.7717C12.9616 14.8044 13.1469 14.7851 13.3261 14.7486V17.3913ZM12.7717 13.6956H8.33696C7.41995 13.6956 6.67391 12.9496 6.67391 12.0326V7.04349H14.4348V12.0326C14.4348 12.9496 13.6887 13.6956 12.7717 13.6956ZM15.5435 17.3913H14.4348V14.25L14.4347 14.2486C14.7048 14.0454 14.9361 13.7939 15.1169 13.5073C15.3873 13.8075 15.5435 14.2004 15.5435 14.6196L15.5435 17.3913Z"
            fill="currentColor" />
    </g>
    <defs>
        <clipPath id="clip0_13958_40248">
            <rect width="17" height="17" fill="white" transform="translate(1.5 1.5)" />
        </clipPath>
    </defs>
</svg>

<svg width="20" height="20" fill="none" xmlns="http://www.w3.org/2000/svg">
    <g clip-path="url(#a)">
        <path
            d="M15.52 12.385c.015-.116.024-.233.024-.352V4.272A2.775 2.775 0 0 0 12.771 1.5H8.337a2.775 2.775 0 0 0-2.772 2.772v1.663H3.902a.554.554 0 0 0 0 1.108h1.663v4.99c0 .119.009.236.023.352a2.762 2.762 0 0 0-1.131 2.235v3.326c0 .306.248.554.554.554h11.087a.554.554 0 0 0 .554-.554V14.62a2.76 2.76 0 0 0-1.132-2.235ZM8.337 2.609h4.435c.917 0 1.663.746 1.663 1.663v1.663h-3.326V5.38c0-.917-.746-1.663-1.663-1.663H6.769A1.666 1.666 0 0 1 8.337 2.61ZM6.674 4.826h2.772c.305 0 .554.249.554.554v.555H6.674V4.826Zm0 9.424v3.141H5.565V14.62c0-.42.156-.813.427-1.113.18.287.412.538.682.742v.001Zm6.652 3.141H7.783V14.75c.179.036.364.055.554.055h4.435c.19 0 .375-.019.554-.055v2.642Zm-.554-3.695H8.337a1.665 1.665 0 0 1-1.663-1.663v-4.99h7.76v4.99c0 .917-.745 1.663-1.662 1.663Zm2.771 3.695h-1.108V14.25c.27-.204.501-.455.682-.742.27.3.426.693.426 1.113v2.771Z"
            fill="currentColor" />
    </g>
    <defs>
        <clipPath id="a">
            <path fill="#fff" transform="translate(1.5 1.5)" d="M0 0h17v17H0z" />
        </clipPath>
    </defs>
</svg>
